X: 30543
T: On The River Bank
R: reel
M: 4/4
K: Dmajor
dcAF G2GF|DEFG AB=cA|d^cAF GBAF|1 DEFG AB=cA:|2 DFA=c BGG2||
Addc d2 cd|edcd efge|fgef d2 dc|AGFG ABcB|
Addc d2 cd|edcd efge|faef d2 dc|Aceg fdd2||

